images/3233562.svg

<?xml version="1.0" encoding="UTF-8"?>
<svg xmlns="http://www.w3.org/2000/svg" xmlns:xlink="http://www.w3.org/1999/xlink" width="300pt" height="300pt" viewBox="0 0 300 300" version="1.1">
<defs>
<g>
<symbol overflow="visible" id="glyph0-0">
<path style="stroke:none;" d="M 0.59375 2.125 L 0.59375 -8.46875 L 6.59375 -8.46875 L 6.59375 2.125 Z M 1.265625 1.453125 L 5.9375 1.453125 L 5.9375 -7.78125 L 1.265625 -7.78125 Z M 1.265625 1.453125 "/>
</symbol>
<symbol overflow="visible" id="glyph0-1">
<path style="stroke:none;" d="M 1.171875 -8.75 L 2.765625 -8.75 L 6.65625 -1.4375 L 6.65625 -8.75 L 7.796875 -8.75 L 7.796875 0 L 6.203125 0 L 2.328125 -7.3125 L 2.328125 0 L 1.171875 0 Z M 1.171875 -8.75 "/>
</symbol>
<symbol overflow="visible" id="glyph0-2">
<path style="stroke:none;" d="M 4.734375 -7.953125 C 3.867188 -7.953125 3.179688 -7.628906 2.671875 -6.984375 C 2.171875 -6.347656 1.921875 -5.472656 1.921875 -4.359375 C 1.921875 -3.265625 2.171875 -2.394531 2.671875 -1.75 C 3.179688 -1.113281 3.867188 -0.796875 4.734375 -0.796875 C 5.585938 -0.796875 6.265625 -1.113281 6.765625 -1.75 C 7.273438 -2.394531 7.53125 -3.265625 7.53125 -4.359375 C 7.53125 -5.472656 7.273438 -6.347656 6.765625 -6.984375 C 6.265625 -7.628906 5.585938 -7.953125 4.734375 -7.953125 Z M 4.734375 -8.90625 C 5.953125 -8.90625 6.925781 -8.492188 7.65625 -7.671875 C 8.394531 -6.847656 8.765625 -5.742188 8.765625 -4.359375 C 8.765625 -2.984375 8.394531 -1.882812 7.65625 -1.0625 C 6.925781 -0.238281 5.953125 0.171875 4.734375 0.171875 C 3.503906 0.171875 2.519531 -0.238281 1.78125 -1.0625 C 1.039062 -1.882812 0.671875 -2.984375 0.671875 -4.359375 C 0.671875 -5.742188 1.039062 -6.847656 1.78125 -7.671875 C 2.519531 -8.492188 3.503906 -8.90625 4.734375 -8.90625 Z M 4.734375 -8.90625 "/>
</symbol>
</g>
</defs>
<g id="surface52161">
<rect x="0" y="0" width="300" height="300" style="fill:rgb(100%,100%,100%);fill-opacity:1;stroke:none;"/>
<path style="fill:none;stroke-width:1.2;stroke-linecap:butt;stroke-linejoin:miter;stroke:rgb(0%,0%,0%);stroke-opacity:1;stroke-miterlimit:10;" d="M 264.75 149.972656 L 249.34375 149.066406 "/>
<path style="fill:none;stroke-width:1.2;stroke-linecap:butt;stroke-linejoin:miter;stroke:rgb(0%,0%,100%);stroke-opacity:1;stroke-miterlimit:10;" d="M 249.34375 149.066406 L 233.941406 148.160156 "/>
<path style="fill:none;stroke-width:1.2;stroke-linecap:butt;stroke-linejoin:miter;stroke:rgb(0%,0%,100%);stroke-opacity:1;stroke-miterlimit:10;" d="M 233.941406 148.160156 L 225.453125 161.050781 "/>
<path style="fill:none;stroke-width:1.2;stroke-linecap:butt;stroke-linejoin:miter;stroke:rgb(0%,0%,0%);stroke-opacity:1;stroke-miterlimit:10;" d="M 225.453125 161.050781 L 216.96875 173.9375 "/>
<path style="fill:none;stroke-width:1.2;stroke-linecap:butt;stroke-linejoin:miter;stroke:rgb(0%,0%,100%);stroke-opacity:1;stroke-miterlimit:10;" d="M 233.941406 148.160156 L 227.023438 134.367188 "/>
<path style="fill:none;stroke-width:1.2;stroke-linecap:butt;stroke-linejoin:miter;stroke:rgb(0%,0%,0%);stroke-opacity:1;stroke-miterlimit:10;" d="M 227.023438 134.367188 L 220.105469 120.574219 "/>
<path style=" stroke:none;fill-rule:nonzero;fill:rgb(100%,100%,100%);fill-opacity:1;" d="M 229.941406 141.160156 L 238.941406 141.160156 L 238.941406 155.160156 L 229.941406 155.160156 Z M 229.941406 141.160156 "/>
<g style="fill:rgb(0%,0%,100%);fill-opacity:1;">
  <use xlink:href="#glyph0-1" x="229.941406" y="152.298828"/>
</g>
<path style="fill:none;stroke-width:1.2;stroke-linecap:butt;stroke-linejoin:miter;stroke:rgb(0%,0%,0%);stroke-opacity:1;stroke-miterlimit:10;" d="M 223.136719 122.570312 L 231.625 109.683594 "/>
<path style="fill:none;stroke-width:1.2;stroke-linecap:butt;stroke-linejoin:miter;stroke:rgb(100%,0%,0%);stroke-opacity:1;stroke-miterlimit:10;" d="M 231.625 109.683594 L 240.109375 96.796875 "/>
<path style="fill:none;stroke-width:1.2;stroke-linecap:butt;stroke-linejoin:miter;stroke:rgb(0%,0%,0%);stroke-opacity:1;stroke-miterlimit:10;" d="M 217.070312 118.578125 L 225.558594 105.691406 "/>
<path style="fill:none;stroke-width:1.2;stroke-linecap:butt;stroke-linejoin:miter;stroke:rgb(100%,0%,0%);stroke-opacity:1;stroke-miterlimit:10;" d="M 225.558594 105.691406 L 234.042969 92.800781 "/>
<path style="fill:none;stroke-width:1.2;stroke-linecap:butt;stroke-linejoin:miter;stroke:rgb(0%,0%,0%);stroke-opacity:1;stroke-miterlimit:10;" d="M 220.105469 120.574219 L 189.296875 118.765625 "/>
<path style=" stroke:none;fill-rule:nonzero;fill:rgb(100%,100%,100%);fill-opacity:1;" d="M 232.078125 87.796875 L 242.078125 87.796875 L 242.078125 101.796875 L 232.078125 101.796875 Z M 232.078125 87.796875 "/>
<g style="fill:rgb(100%,0%,0%);fill-opacity:1;">
  <use xlink:href="#glyph0-2" x="232.078125" y="98.935547"/>
</g>
<path style="fill:none;stroke-width:1.2;stroke-linecap:butt;stroke-linejoin:miter;stroke:rgb(0%,0%,0%);stroke-opacity:1;stroke-miterlimit:10;" d="M 189.296875 118.765625 L 172.324219 144.539062 "/>
<path style="fill:none;stroke-width:1.2;stroke-linecap:butt;stroke-linejoin:miter;stroke:rgb(0%,0%,0%);stroke-opacity:1;stroke-miterlimit:10;" d="M 181.53125 117.347656 L 167.953125 137.96875 "/>
<path style="fill:none;stroke-width:1.2;stroke-linecap:butt;stroke-linejoin:miter;stroke:rgb(0%,0%,0%);stroke-opacity:1;stroke-miterlimit:10;" d="M 175.457031 91.175781 L 189.296875 118.765625 "/>
<path style="fill:none;stroke-width:1.2;stroke-linecap:butt;stroke-linejoin:miter;stroke:rgb(0%,0%,0%);stroke-opacity:1;stroke-miterlimit:10;" d="M 172.324219 144.539062 L 141.515625 142.730469 "/>
<path style="fill:none;stroke-width:1.2;stroke-linecap:butt;stroke-linejoin:miter;stroke:rgb(0%,0%,0%);stroke-opacity:1;stroke-miterlimit:10;" d="M 141.515625 142.730469 L 127.675781 115.144531 "/>
<path style="fill:none;stroke-width:1.2;stroke-linecap:butt;stroke-linejoin:miter;stroke:rgb(0%,0%,0%);stroke-opacity:1;stroke-miterlimit:10;" d="M 146.621094 136.714844 L 135.550781 114.644531 "/>
<path style="fill:none;stroke-width:1.2;stroke-linecap:butt;stroke-linejoin:miter;stroke:rgb(0%,0%,0%);stroke-opacity:1;stroke-miterlimit:10;" d="M 127.675781 115.144531 L 144.648438 89.367188 "/>
<path style="fill:none;stroke-width:1.2;stroke-linecap:butt;stroke-linejoin:miter;stroke:rgb(0%,0%,0%);stroke-opacity:1;stroke-miterlimit:10;" d="M 127.675781 115.144531 L 96.867188 113.332031 "/>
<path style="fill:none;stroke-width:1.2;stroke-linecap:butt;stroke-linejoin:miter;stroke:rgb(0%,0%,0%);stroke-opacity:1;stroke-miterlimit:10;" d="M 144.648438 89.367188 L 175.457031 91.175781 "/>
<path style="fill:none;stroke-width:1.2;stroke-linecap:butt;stroke-linejoin:miter;stroke:rgb(0%,0%,0%);stroke-opacity:1;stroke-miterlimit:10;" d="M 147.304688 96.796875 L 171.953125 98.246094 "/>
<path style="fill:none;stroke-width:1.2;stroke-linecap:butt;stroke-linejoin:miter;stroke:rgb(0%,0%,0%);stroke-opacity:1;stroke-miterlimit:10;" d="M 96.867188 113.332031 L 83.03125 85.746094 "/>
<path style="fill:none;stroke-width:1.2;stroke-linecap:butt;stroke-linejoin:miter;stroke:rgb(0%,0%,0%);stroke-opacity:1;stroke-miterlimit:10;" d="M 88.992188 113.828125 L 77.925781 91.761719 "/>
<path style="fill:none;stroke-width:1.2;stroke-linecap:butt;stroke-linejoin:miter;stroke:rgb(0%,0%,0%);stroke-opacity:1;stroke-miterlimit:10;" d="M 79.894531 139.109375 L 96.867188 113.332031 "/>
<path style="fill:none;stroke-width:1.2;stroke-linecap:butt;stroke-linejoin:miter;stroke:rgb(0%,0%,0%);stroke-opacity:1;stroke-miterlimit:10;" d="M 83.03125 85.746094 L 67.628906 84.839844 "/>
<path style="fill:none;stroke-width:1.2;stroke-linecap:butt;stroke-linejoin:miter;stroke:rgb(0%,0%,100%);stroke-opacity:1;stroke-miterlimit:10;" d="M 67.628906 84.839844 L 52.222656 83.933594 "/>
<path style="fill:none;stroke-width:1.2;stroke-linecap:butt;stroke-linejoin:miter;stroke:rgb(0%,0%,100%);stroke-opacity:1;stroke-miterlimit:10;" d="M 52.222656 83.933594 L 43.734375 96.824219 "/>
<path style="fill:none;stroke-width:1.2;stroke-linecap:butt;stroke-linejoin:miter;stroke:rgb(0%,0%,0%);stroke-opacity:1;stroke-miterlimit:10;" d="M 43.734375 96.824219 L 35.25 109.710938 "/>
<path style="fill:none;stroke-width:1.2;stroke-linecap:butt;stroke-linejoin:miter;stroke:rgb(0%,0%,100%);stroke-opacity:1;stroke-miterlimit:10;" d="M 56.589844 90.507812 L 49.800781 100.816406 "/>
<path style="fill:none;stroke-width:1.2;stroke-linecap:butt;stroke-linejoin:miter;stroke:rgb(0%,0%,0%);stroke-opacity:1;stroke-miterlimit:10;" d="M 49.800781 100.816406 L 43.011719 111.128906 "/>
<path style=" stroke:none;fill-rule:nonzero;fill:rgb(100%,100%,100%);fill-opacity:1;" d="M 48.222656 76.933594 L 57.222656 76.933594 L 57.222656 90.933594 L 48.222656 90.933594 Z M 48.222656 76.933594 "/>
<g style="fill:rgb(0%,0%,100%);fill-opacity:1;">
  <use xlink:href="#glyph0-1" x="48.222656" y="88.072266"/>
</g>
<path style="fill:none;stroke-width:1.2;stroke-linecap:butt;stroke-linejoin:miter;stroke:rgb(0%,0%,0%);stroke-opacity:1;stroke-miterlimit:10;" d="M 35.25 109.710938 L 42.167969 123.503906 "/>
<path style="fill:none;stroke-width:1.2;stroke-linecap:butt;stroke-linejoin:miter;stroke:rgb(0%,0%,100%);stroke-opacity:1;stroke-miterlimit:10;" d="M 42.167969 123.503906 L 49.085938 137.296875 "/>
<path style="fill:none;stroke-width:1.2;stroke-linecap:butt;stroke-linejoin:miter;stroke:rgb(0%,0%,100%);stroke-opacity:1;stroke-miterlimit:10;" d="M 49.085938 137.296875 L 64.492188 138.203125 "/>
<path style="fill:none;stroke-width:1.2;stroke-linecap:butt;stroke-linejoin:miter;stroke:rgb(0%,0%,0%);stroke-opacity:1;stroke-miterlimit:10;" d="M 64.492188 138.203125 L 79.894531 139.109375 "/>
<path style="fill:none;stroke-width:1.2;stroke-linecap:butt;stroke-linejoin:miter;stroke:rgb(0%,0%,100%);stroke-opacity:1;stroke-miterlimit:10;" d="M 52.59375 130.230469 L 64.917969 130.953125 "/>
<path style="fill:none;stroke-width:1.2;stroke-linecap:butt;stroke-linejoin:miter;stroke:rgb(0%,0%,0%);stroke-opacity:1;stroke-miterlimit:10;" d="M 64.917969 130.953125 L 77.242188 131.679688 "/>
<path style=" stroke:none;fill-rule:nonzero;fill:rgb(100%,100%,100%);fill-opacity:1;" d="M 45.085938 130.296875 L 54.085938 130.296875 L 54.085938 144.296875 L 45.085938 144.296875 Z M 45.085938 130.296875 "/>
<g style="fill:rgb(0%,0%,100%);fill-opacity:1;">
  <use xlink:href="#glyph0-1" x="45.085938" y="141.435547"/>
</g>
<path style="fill:none;stroke-width:1.2;stroke-linecap:butt;stroke-linejoin:miter;stroke:rgb(0%,0%,0%);stroke-opacity:1;stroke-miterlimit:10;" d="M 79.894531 139.109375 L 86.8125 152.902344 "/>
<path style="fill:none;stroke-width:1.2;stroke-linecap:butt;stroke-linejoin:miter;stroke:rgb(0%,0%,100%);stroke-opacity:1;stroke-miterlimit:10;" d="M 86.8125 152.902344 L 93.730469 166.695312 "/>
<path style="fill:none;stroke-width:1.2;stroke-linecap:butt;stroke-linejoin:miter;stroke:rgb(0%,0%,100%);stroke-opacity:1;stroke-miterlimit:10;" d="M 93.730469 166.695312 L 108.957031 169.207031 "/>
<path style="fill:none;stroke-width:1.2;stroke-linecap:butt;stroke-linejoin:miter;stroke:rgb(0%,0%,0%);stroke-opacity:1;stroke-miterlimit:10;" d="M 108.957031 169.207031 L 124.183594 171.714844 "/>
<path style="fill:none;stroke-width:1.2;stroke-linecap:butt;stroke-linejoin:miter;stroke:rgb(0%,0%,0%);stroke-opacity:1;stroke-miterlimit:10;" d="M 79.546875 194.105469 L 86.640625 180.398438 "/>
<path style="fill:none;stroke-width:1.2;stroke-linecap:butt;stroke-linejoin:miter;stroke:rgb(0%,0%,100%);stroke-opacity:1;stroke-miterlimit:10;" d="M 86.640625 180.398438 L 93.730469 166.695312 "/>
<path style=" stroke:none;fill-rule:nonzero;fill:rgb(100%,100%,100%);fill-opacity:1;" d="M 89.730469 159.695312 L 98.730469 159.695312 L 98.730469 173.695312 L 89.730469 173.695312 Z M 89.730469 159.695312 "/>
<g style="fill:rgb(0%,0%,100%);fill-opacity:1;">
  <use xlink:href="#glyph0-1" x="89.730469" y="170.833984"/>
</g>
<path style="fill:none;stroke-width:1.2;stroke-linecap:butt;stroke-linejoin:miter;stroke:rgb(0%,0%,0%);stroke-opacity:1;stroke-miterlimit:10;" d="M 124.183594 171.714844 L 128.816406 202.226562 "/>
<path style="fill:none;stroke-width:1.2;stroke-linecap:butt;stroke-linejoin:miter;stroke:rgb(0%,0%,0%);stroke-opacity:1;stroke-miterlimit:10;" d="M 117.46875 175.859375 L 121.175781 200.269531 "/>
<path style="fill:none;stroke-width:1.2;stroke-linecap:butt;stroke-linejoin:miter;stroke:rgb(0%,0%,0%);stroke-opacity:1;stroke-miterlimit:10;" d="M 128.816406 202.226562 L 115.023438 209.148438 "/>
<path style="fill:none;stroke-width:1.2;stroke-linecap:butt;stroke-linejoin:miter;stroke:rgb(0%,0%,100%);stroke-opacity:1;stroke-miterlimit:10;" d="M 115.023438 209.148438 L 101.230469 216.066406 "/>
<path style="fill:none;stroke-width:1.2;stroke-linecap:butt;stroke-linejoin:miter;stroke:rgb(0%,0%,100%);stroke-opacity:1;stroke-miterlimit:10;" d="M 101.230469 216.066406 L 90.390625 205.085938 "/>
<path style="fill:none;stroke-width:1.2;stroke-linecap:butt;stroke-linejoin:miter;stroke:rgb(0%,0%,0%);stroke-opacity:1;stroke-miterlimit:10;" d="M 90.390625 205.085938 L 79.546875 194.105469 "/>
<path style="fill:none;stroke-width:1.2;stroke-linecap:butt;stroke-linejoin:miter;stroke:rgb(0%,0%,100%);stroke-opacity:1;stroke-miterlimit:10;" d="M 104.230469 208.765625 L 95.554688 199.984375 "/>
<path style="fill:none;stroke-width:1.2;stroke-linecap:butt;stroke-linejoin:miter;stroke:rgb(0%,0%,0%);stroke-opacity:1;stroke-miterlimit:10;" d="M 95.554688 199.984375 L 86.882812 191.199219 "/>
<path style=" stroke:none;fill-rule:nonzero;fill:rgb(100%,100%,100%);fill-opacity:1;" d="M 97.230469 209.066406 L 106.230469 209.066406 L 106.230469 223.066406 L 97.230469 223.066406 Z M 97.230469 209.066406 "/>
<g style="fill:rgb(0%,0%,100%);fill-opacity:1;">
  <use xlink:href="#glyph0-1" x="97.230469" y="220.205078"/>
</g>
</g>
</svg>

<svg xmlns="http://www.w3.org/2000/svg" xmlns:xlink="http://www.w3.org/1999/xlink" width="300pt" height="300pt" viewBox="0 0 300 300"><defs><symbol overflow="visible"><path d="M.594 2.125V-8.47h6V2.126zm.672-.672h4.671V-7.78h-4.67zm0 0"/></symbol><symbol overflow="visible" id="a"><path d="M1.172-8.75h1.594l3.89 7.313V-8.75h1.14V0H6.204L2.328-7.313V0H1.172zm0 0"/></symbol><symbol overflow="visible" id="b"><path d="M4.734-7.953c-.867 0-1.554.324-2.062.97-.5.635-.75 1.51-.75 2.624 0 1.094.25 1.965.75 2.61.508.637 1.195.953 2.062.953.852 0 1.532-.316 2.032-.953.507-.645.765-1.516.765-2.61 0-1.113-.257-1.988-.764-2.624-.5-.645-1.18-.97-2.032-.97zm0-.953c1.22 0 2.192.414 2.922 1.234.74.824 1.11 1.93 1.11 3.313 0 1.376-.37 2.477-1.11 3.298C6.926-.24 5.953.17 4.734.17c-1.23 0-2.214-.41-2.953-1.234C1.04-1.882.673-2.984.673-4.36c0-1.382.367-2.488 1.11-3.312.738-.82 1.722-1.234 2.952-1.234zm0 0"/></symbol></defs><g><path fill="#fff" d="M0 0h300v300H0z"/><path d="M264.75 149.973l-15.406-.907" stroke-width="1.2" stroke="#000" stroke-miterlimit="10" fill="none"/><path d="M249.344 149.066l-15.403-.906M233.94 148.16l-8.487 12.89" stroke-width="1.2" stroke="#00f" stroke-miterlimit="10" fill="none"/><path d="M225.453 161.05l-8.484 12.887" stroke-width="1.2" stroke="#000" stroke-miterlimit="10" fill="none"/><path d="M233.94 148.16l-6.917-13.793" stroke-width="1.2" stroke="#00f" stroke-miterlimit="10" fill="none"/><path d="M227.023 134.367l-6.918-13.793" stroke-width="1.2" stroke="#000" stroke-miterlimit="10" fill="none"/><path d="M229.94 141.16h9v14h-9zm0 0" fill="#fff"/><use xlink:href="#a" x="229.941" y="152.299" fill="#00f"/><path d="M223.137 122.57l8.488-12.886" stroke-width="1.2" stroke="#000" stroke-miterlimit="10" fill="none"/><path d="M231.625 109.684l8.484-12.887" stroke-width="1.2" stroke="#f00" stroke-miterlimit="10" fill="none"/><path d="M217.07 118.578l8.49-12.887" stroke-width="1.2" stroke="#000" stroke-miterlimit="10" fill="none"/><path d="M225.56 105.69l8.483-12.89" stroke-width="1.2" stroke="#f00" stroke-miterlimit="10" fill="none"/><path d="M220.105 120.574l-30.808-1.808" stroke-width="1.2" stroke="#000" stroke-miterlimit="10" fill="none"/><path d="M232.078 87.797h10v14h-10zm0 0" fill="#fff"/><use xlink:href="#b" x="232.078" y="98.936" fill="#f00"/><path d="M189.297 118.766l-16.973 25.773M181.53 117.348l-13.577 20.62M175.457 91.176l13.84 27.59M172.324 144.54l-30.808-1.81M141.516 142.73l-13.84-27.585M146.62 136.715l-11.07-22.07M127.676 115.145l16.972-25.778M127.676 115.145l-30.81-1.813M144.648 89.367l30.81 1.81M147.305 96.797l24.648 1.45M96.867 113.332L83.03 85.746M88.992 113.828L77.926 91.762M79.895 139.11l16.972-25.778M83.03 85.746l-15.4-.906" stroke-width="1.2" stroke="#000" stroke-miterlimit="10" fill="none"/><path d="M67.63 84.84l-15.407-.906M52.223 83.934l-8.49 12.89" stroke-width="1.2" stroke="#00f" stroke-miterlimit="10" fill="none"/><path d="M43.734 96.824L35.25 109.71" stroke-width="1.2" stroke="#000" stroke-miterlimit="10" fill="none"/><path d="M56.59 90.508l-6.79 10.308" stroke-width="1.2" stroke="#00f" stroke-miterlimit="10" fill="none"/><path d="M49.8 100.816l-6.788 10.313" stroke-width="1.2" stroke="#000" stroke-miterlimit="10" fill="none"/><path d="M48.223 76.934h9v14h-9zm0 0" fill="#fff"/><use xlink:href="#a" x="48.223" y="88.072" fill="#00f"/><path d="M35.25 109.71l6.918 13.794" stroke-width="1.2" stroke="#000" stroke-miterlimit="10" fill="none"/><path d="M42.168 123.504l6.918 13.793M49.086 137.297l15.406.906" stroke-width="1.2" stroke="#00f" stroke-miterlimit="10" fill="none"/><path d="M64.492 138.203l15.403.906" stroke-width="1.2" stroke="#000" stroke-miterlimit="10" fill="none"/><path d="M52.594 130.23l12.324.723" stroke-width="1.2" stroke="#00f" stroke-miterlimit="10" fill="none"/><path d="M64.918 130.953l12.324.727" stroke-width="1.2" stroke="#000" stroke-miterlimit="10" fill="none"/><path d="M45.086 130.297h9v14h-9zm0 0" fill="#fff"/><use xlink:href="#a" x="45.086" y="141.436" fill="#00f"/><path d="M79.895 139.11l6.918 13.792" stroke-width="1.2" stroke="#000" stroke-miterlimit="10" fill="none"/><path d="M86.813 152.902l6.917 13.793M93.73 166.695l15.227 2.512" stroke-width="1.2" stroke="#00f" stroke-miterlimit="10" fill="none"/><path d="M108.957 169.207l15.227 2.508M79.547 194.105l7.094-13.707" stroke-width="1.2" stroke="#000" stroke-miterlimit="10" fill="none"/><path d="M86.64 180.398l7.09-13.703" stroke-width="1.2" stroke="#00f" stroke-miterlimit="10" fill="none"/><path d="M89.73 159.695h9v14h-9zm0 0" fill="#fff"/><use xlink:href="#a" x="89.73" y="170.834" fill="#00f"/><path d="M124.184 171.715l4.632 30.512M117.47 175.86l3.706 24.41M128.816 202.227l-13.793 6.92" stroke-width="1.2" stroke="#000" stroke-miterlimit="10" fill="none"/><path d="M115.023 209.148l-13.793 6.918M101.23 216.066l-10.84-10.98" stroke-width="1.2" stroke="#00f" stroke-miterlimit="10" fill="none"/><path d="M90.39 205.086l-10.843-10.98" stroke-width="1.2" stroke="#000" stroke-miterlimit="10" fill="none"/><path d="M104.23 208.766l-8.675-8.782" stroke-width="1.2" stroke="#00f" stroke-miterlimit="10" fill="none"/><path d="M95.555 199.984l-8.672-8.785" stroke-width="1.2" stroke="#000" stroke-miterlimit="10" fill="none"/><path d="M97.23 209.066h9v14h-9zm0 0" fill="#fff"/><use xlink:href="#a" x="97.23" y="220.205" fill="#00f"/></g></svg>
